app/img/sprite/sale.svg

<svg width="40" height="40" viewBox="0 0 40 40" fill="none" xmlns="http://www.w3.org/2000/svg">
<path d="M35.4081 9.86939L25.449 0.42449C25.1061 0.171429 24.7714 0 24.3388 0H5.70202C4.76324 0 4.08569 0.767347 4.08569 1.61633V38.3837C4.08569 39.3224 4.85304 40 5.70202 40H34.2979C35.2367 40 35.9143 39.3224 35.9143 38.3837V10.9796C35.9143 10.5551 35.751 10.2122 35.4081 9.86939ZM25.8735 5.17551L30.9837 10.0408H25.8735V5.17551ZM32.7714 36.849H7.23671V3.15102H22.6408V11.4939C22.6408 12.4327 23.4081 13.1102 24.2571 13.1102H32.7714V36.849Z" fill="#E0E0E0"/>
<path d="M24.8774 15.1102C24.1754 14.7428 23.3182 15.0204 22.9509 15.7143L14.5264 31.8857C14.1591 32.5877 14.4121 33.4857 15.1305 33.8122C15.9468 34.1877 16.804 33.6979 17.057 33.2081L25.4815 17.0367C25.8489 16.3347 25.5713 15.4694 24.8774 15.1102Z" fill="#E0E0E0"/>
<path d="M18.8612 19.6979C18.8612 16.955 16.9673 14.7346 14.6244 14.7346C12.2816 14.7346 10.3877 16.955 10.3877 19.6979C10.3877 22.4407 12.2897 24.653 14.6244 24.653C16.9591 24.653 18.8612 22.4326 18.8612 19.6979ZM13.2448 19.6979C13.2448 18.5387 13.8652 17.5918 14.6244 17.5918C15.3836 17.5918 16.004 18.5305 16.004 19.6979C16.004 20.8652 15.3918 21.7958 14.6244 21.7958C13.8571 21.7958 13.2448 20.8571 13.2448 19.6979Z" fill="#E0E0E0"/>
<path d="M25.3755 24.2611C23.0327 24.2611 21.1388 26.4815 21.1388 29.2244C21.1388 31.9672 23.0327 34.1876 25.3755 34.1876C27.7184 34.1876 29.6123 31.9672 29.6123 29.2244C29.6123 26.4815 27.7184 24.2611 25.3755 24.2611ZM25.3755 31.3223C24.6163 31.3223 23.9959 30.3836 23.9959 29.2162C23.9959 28.0489 24.6163 27.1101 25.3755 27.1101C26.1347 27.1101 26.7551 28.0489 26.7551 29.2162C26.7551 30.3836 26.1429 31.3223 25.3755 31.3223Z" fill="#E0E0E0"/>
</svg>

<svg width="40" height="40" fill="none" xmlns="http://www.w3.org/2000/svg"><path d="M35.4 9.9L25.4.4c-.3-.2-.6-.4-1-.4H5.6c-1 0-1.6.8-1.6 1.6v36.8c0 1 .8 1.6 1.6 1.6h28.6c1 0 1.6-.7 1.6-1.6V11c0-.4-.1-.8-.5-1.1zM26 5.2l5 4.8h-5V5.2zm6.9 31.6H7.2V3.2h15.4v8.3c0 1 .8 1.6 1.7 1.6h8.5v23.7z" fill="#E0E0E0"/><path d="M24.9 15.1c-.7-.4-1.6 0-2 .6L14.6 32c-.3.7 0 1.6.6 2 .8.3 1.7-.2 2-.7L25.5 17c.3-.7 0-1.5-.6-1.9zM18.9 19.7c0-2.7-2-5-4.3-5s-4.2 2.3-4.2 5 1.9 5 4.2 5c2.4 0 4.3-2.3 4.3-5zm-5.7 0c0-1.2.7-2.1 1.4-2.1.8 0 1.4 1 1.4 2.1 0 1.2-.6 2.1-1.4 2.1-.7 0-1.4-1-1.4-2.1zM25.4 24.3c-2.4 0-4.3 2.2-4.3 5 0 2.7 2 4.9 4.3 4.9s4.2-2.2 4.2-5c0-2.7-1.9-5-4.2-5zm0 7c-.8 0-1.4-1-1.4-2 0-1.3.6-2.2 1.4-2.2.7 0 1.4 1 1.4 2.1 0 1.2-.7 2.1-1.4 2.1z" fill="#E0E0E0"/></svg>
